dist/img/svg/message.svg

<svg width="21" height="20" viewBox="0 0 21 20" fill="none" xmlns="http://www.w3.org/2000/svg">
<g clip-path="url(#clip0_3_356)">
<path d="M2.54347 9.93824C2.54347 7.28474 2.5534 6.97002 2.60144 5.92237C2.65113 4.8391 2.89793 3.72354 3.68719 2.93428C4.4839 2.13756 5.5887 1.89822 6.67528 1.84853C7.72294 1.80049 8.03765 1.79055 10.6912 1.79055C13.3447 1.79055 13.6594 1.80049 14.707 1.84853C15.7845 1.89739 16.9108 2.14999 17.6951 2.93428C18.4918 3.73099 18.7312 4.83496 18.7809 5.92237C18.8289 6.97002 18.8388 7.28473 18.8388 9.93824C18.8388 12.5917 18.8289 12.9065 18.7809 13.9541C18.732 15.0233 18.4736 16.1645 17.6951 16.9422C16.9025 17.7348 15.787 17.9783 14.707 18.028C13.6594 18.076 13.3447 18.0859 10.6912 18.0859C8.03765 18.0859 7.72294 18.076 6.67528 18.028C5.60195 17.9791 4.469 17.724 3.68719 16.9422C2.89213 16.1471 2.65113 15.0382 2.60144 13.9541C2.5534 12.9065 2.54347 12.5917 2.54347 9.93824ZM0.752929 9.93824C0.752929 12.6373 0.764524 12.976 0.812559 14.0361C0.882955 15.5724 1.3103 17.0979 2.42089 18.2085C3.53563 19.3232 5.05784 19.7464 6.59329 19.8168C7.65337 19.8649 7.9921 19.8765 10.6912 19.8765C13.3902 19.8765 13.7289 19.8649 14.789 19.8168C16.3236 19.7464 17.8533 19.3174 18.9614 18.2085C20.0753 17.0946 20.4994 15.5699 20.5697 14.0361C20.6178 12.976 20.6294 12.6373 20.6294 9.93824C20.6294 7.23918 20.6178 6.90046 20.5697 5.84038C20.4994 4.30492 20.0712 2.77775 18.9614 1.66798C17.8458 0.552415 16.3245 0.130042 14.789 0.059646C13.7289 0.0116114 13.3902 1.66137e-05 10.6912 1.67317e-05C7.9921 1.68497e-05 7.65337 0.0116116 6.59329 0.0596464C5.05701 0.130043 3.53066 0.558214 2.42089 1.66798C1.30864 2.78024 0.882126 4.30907 0.812558 5.84038C0.764524 6.90046 0.752929 7.23919 0.752929 9.93824Z" fill="white"/>
<path d="M5.58789 9.93823C5.58789 12.7565 7.87285 15.0415 10.6912 15.0415C13.5095 15.0415 15.7944 12.7565 15.7944 9.93823C15.7944 7.11991 13.5095 4.83495 10.6912 4.83495C7.87285 4.83495 5.58789 7.11991 5.58789 9.93823ZM14.0039 9.93823C14.0039 11.7677 12.5206 13.251 10.6912 13.251C8.86171 13.251 7.37843 11.7677 7.37843 9.93823C7.37843 8.10876 8.86171 6.62548 10.6912 6.62548C12.5206 6.62548 14.0039 8.10876 14.0039 9.93823Z" fill="white"/>
<path d="M6.57841 4.63285C6.57841 3.9742 6.04447 3.44026 5.38582 3.44026C4.72718 3.44026 4.19324 3.9742 4.19324 4.63285C4.19324 5.2915 4.72718 5.82544 5.38582 5.82544C6.04447 5.82544 6.57841 5.2915 6.57841 4.63285Z" fill="white"/>
</g>
<defs>
<clipPath id="clip0_3_356">
<rect width="19.8764" height="19.8764" fill="white" transform="translate(0.75293 19.8765) rotate(-90)"/>
</clipPath>
</defs>
</svg>

<svg width="21" height="20" viewBox="0 0 21 20" fill="none" xmlns="http://www.w3.org/2000/svg"><g clip-path="url(#clip0_3_356)" fill="#fff"><path d="M2.543 9.938c0-2.653.01-2.968.058-4.016.05-1.083.297-2.198 1.086-2.988.797-.796 1.902-1.036 2.988-1.085 1.048-.049 1.363-.058 4.016-.058 2.654 0 2.968.01 4.016.058 1.077.048 2.204.301 2.988 1.085.797.797 1.036 1.901 1.086 2.988.048 1.048.058 1.363.058 4.016 0 2.654-.01 2.968-.058 4.016-.049 1.07-.307 2.21-1.086 2.988-.793.793-1.908 1.036-2.988 1.086-1.048.048-1.362.058-4.016.058-2.653 0-2.968-.01-4.016-.058-1.073-.049-2.206-.304-2.988-1.086-.795-.795-1.036-1.904-1.086-2.988-.048-1.048-.058-1.362-.058-4.016zm-1.79 0c0 2.7.012 3.038.06 4.098.07 1.536.497 3.062 1.608 4.173 1.115 1.114 2.637 1.537 4.172 1.608 1.06.048 1.4.06 4.098.06 2.7 0 3.038-.012 4.098-.06 1.535-.07 3.064-.5 4.172-1.608 1.114-1.114 1.538-2.64 1.609-4.173.048-1.06.06-1.399.06-4.098s-.012-3.038-.06-4.098c-.07-1.535-.499-3.062-1.609-4.172C17.846.552 16.325.13 14.79.06 13.729.012 13.39 0 10.691 0S7.653.012 6.593.06C5.057.13 3.531.558 2.421 1.668 1.309 2.78.882 4.309.813 5.84.765 6.9.753 7.24.753 9.938z"/><path d="M5.588 9.938a5.103 5.103 0 1010.207 0 5.103 5.103 0 00-10.207 0zm8.416 0a3.313 3.313 0 11-6.626 0 3.313 3.313 0 016.626 0zM6.578 4.633a1.193 1.193 0 10-2.385 0 1.193 1.193 0 002.385 0z"/></g><defs><clipPath id="clip0_3_356"><path fill="#fff" transform="rotate(-90 10.315 9.562)" d="M0 0h19.876v19.876H0z"/></clipPath></defs></svg>
